static/images/clients/svg/hyperisland.svg

<svg fill="none" height="18" viewBox="0 0 146 18" width="146" xmlns="http://www.w3.org/2000/svg" xmlns:xlink="http://www.w3.org/1999/xlink"><clipPath id="a"><path d="m0 0h145.364v18h-145.364z"/></clipPath><g clip-path="url(#a)" fill="#000"><path d="m44.1641 9.96916h5.4v-2.63077h-5.4v-4.2923h5.8154v-2.769235h-9.5538v17.446145h9.6923v-2.6308h-5.9539z"/><path d="m33.9179.276855h-6.6462v17.446145h3.7385v-7.0615h2.6308c3.2307 0 4.8461-1.70772 4.8461-5.12311 0-3.50769-1.5231-5.261535-4.5692-5.261535zm-.9692 7.753845h-1.9385v-4.98461h1.8c1.2923 0 1.9385.87692 1.9385 2.63077 0 1.56923-.6 2.35384-1.8 2.35384z"/><path d="m59.805 9.13839c2.2154-.36923 3.3231-1.8 3.3231-4.2923 0-3.04616-1.3846-4.569235-4.1538-4.569235h-6.6462v17.446145h3.6v-7.2h.9693c1.6615 0 2.5384.8769 2.6307 2.6308.0923 2.7692.1846 4.2923.2769 4.5692h3.6c-.2769-.5538-.4153-2.2615-.4153-5.1231 0-2.0307-1.0616-3.18458-3.1847-3.46151zm-2.2102-1.24615h-1.6615v-4.84615h1.6615c1.2 0 1.8.73846 1.8 2.21538 0 1.75385-.6051 2.63077-1.8 2.63077z"/><path d="m19.3846 7.61532-2.6307-7.338465h-3.8769l4.5692 11.353845v6.0923h3.5949v-6.0923l4.8461-11.353845h-3.7385z"/><path d="m106.744.276855-4.847 17.446145h3.6l.965-3.8769h4.984l.969 3.8769h3.877l-4.707-17.446145zm.548 10.938445 1.662-7.47691 1.8 7.47691z"/><path d="m127.508 12.323-4.57-12.046145h-4.984v17.446145h3.461v-12.73845l4.708 12.73845h4.846v-17.446145h-3.461z"/><path d="m139.831.276855h-6.093v17.446145h5.954c3.785 0 5.677-2.9538 5.677-8.86153-.005-5.72308-1.851-8.584615-5.538-8.584615zm-.693 14.815345h-1.8v-12.04611h1.939c1.661 0 2.492 1.98461 2.492 5.95384 0 4.06157-.882 6.09227-2.631 6.09227z"/><path d="m85.9025 7.89231c-2.4461-1.38462-3.6666-2.53846-3.6666-3.46154 0-1.2.6461-1.8 1.9384-1.8 1.1077 0 1.6616.87692 1.6616 2.63077h3.4615c.2769-3.50769-1.3846-5.26154-4.9846-5.26154-3.7846 0-5.6769 1.66154-5.6769 4.98462 0 1.84615 1.2 3.50769 3.6 4.98461 2.4 1.47697 3.6 2.63077 3.6 3.46157 0 1.2923-.6 1.9384-1.8 1.9384-1.3847 0-2.077-1.0154-2.077-3.0461h-3.6c-.2769 3.7846 1.4308 5.6769 5.1231 5.6769 4.0615 0 6.0923-1.6615 6.0923-4.9846 0-2.0308-1.2256-3.73848-3.6718-5.12309z"/><path d="m95.3898.276855h-3.6v17.446145h9.1332v-2.9077h-5.5332z"/><path d="m76.1436.276855h-3.6v17.446145h3.6z"/><path d="m7.75385 7.33839h-4.15385v-7.061535h-3.6v17.446145h3.6v-7.75384h4.15385v7.75384h3.59995v-17.446145h-3.59995z"/></g></svg>

<svg width="146" height="18" viewBox="0 0 146 18" fill="none" xmlns="http://www.w3.org/2000/svg">
<g clip-path="url(#clip0)">
<path d="M44.1641 9.96916H49.5641V7.33839H44.1641V3.04609H49.9795V0.276855H40.4257V17.723H50.118V15.0922H44.1641V9.96916Z" fill="black"/>
<path d="M33.9179 0.276855H27.2717V17.723H31.0102V10.6615H33.641C36.8717 10.6615 38.4871 8.95378 38.4871 5.53839C38.4871 2.0307 36.964 0.276855 33.9179 0.276855ZM32.9487 8.0307H31.0102V3.04609H32.8102C34.1025 3.04609 34.7487 3.92301 34.7487 5.67686C34.7487 7.24609 34.1487 8.0307 32.9487 8.0307Z" fill="black"/>
<path d="M59.805 9.13839C62.0204 8.76916 63.1281 7.33839 63.1281 4.84609C63.1281 1.79993 61.7435 0.276855 58.9743 0.276855H52.3281V17.723H55.9281V10.523H56.8974C58.5589 10.523 59.4358 11.3999 59.5281 13.1538C59.6204 15.923 59.7127 17.4461 59.805 17.723H63.405C63.1281 17.1692 62.9897 15.4615 62.9897 12.5999C62.9897 10.5692 61.9281 9.41532 59.805 9.13839ZM57.5948 7.89224H55.9333V3.04609H57.5948C58.7948 3.04609 59.3948 3.78455 59.3948 5.26147C59.3948 7.01532 58.7897 7.89224 57.5948 7.89224Z" fill="black"/>
<path d="M19.3846 7.61532L16.7539 0.276855H12.877L17.4462 11.6307V17.723H21.0411V11.6307L25.8872 0.276855H22.1487L19.3846 7.61532Z" fill="black"/>
<path d="M106.744 0.276855L101.897 17.723H105.497L106.462 13.8461H111.446L112.415 17.723H116.292L111.585 0.276855H106.744V0.276855ZM107.292 11.2153L108.954 3.73839L110.754 11.2153H107.292Z" fill="black"/>
<path d="M127.508 12.323L122.938 0.276855H117.954V17.723H121.415V4.98455L126.123 17.723H130.969V0.276855H127.508V12.323Z" fill="black"/>
<path d="M139.831 0.276855H133.738V17.723H139.692C143.477 17.723 145.369 14.7692 145.369 8.86147C145.364 3.13839 143.518 0.276855 139.831 0.276855ZM139.138 15.0922H137.338V3.04609H139.277C140.938 3.04609 141.769 5.0307 141.769 8.99993C141.769 13.0615 140.887 15.0922 139.138 15.0922Z" fill="black"/>
<path d="M85.9025 7.89231C83.4564 6.50769 82.2359 5.35385 82.2359 4.43077C82.2359 3.23077 82.882 2.63077 84.1743 2.63077C85.282 2.63077 85.8359 3.50769 85.8359 5.26154H89.2974C89.5743 1.75385 87.9128 0 84.3128 0C80.5282 0 78.6359 1.66154 78.6359 4.98462C78.6359 6.83077 79.8359 8.49231 82.2359 9.96923C84.6359 11.4462 85.8359 12.6 85.8359 13.4308C85.8359 14.7231 85.2359 15.3692 84.0359 15.3692C82.6512 15.3692 81.9589 14.3538 81.9589 12.3231H78.3589C78.082 16.1077 79.7897 18 83.482 18C87.5435 18 89.5743 16.3385 89.5743 13.0154C89.5743 10.9846 88.3487 9.27692 85.9025 7.89231Z" fill="black"/>
<path d="M95.3898 0.276855H91.7898V17.723H100.923V14.8153H95.3898V0.276855Z" fill="black"/>
<path d="M76.1436 0.276855H72.5436V17.723H76.1436V0.276855Z" fill="black"/>
<path d="M7.75385 7.33839H3.6V0.276855H0V17.723H3.6V9.96916H7.75385V17.723H11.3538V0.276855H7.75385V7.33839Z" fill="black"/>
</g>
<defs>
<clipPath id="clip0">
<rect width="145.364" height="18" fill="white"/>
</clipPath>
</defs>
</svg>
